;FLAVOR:Marlin
;TIME:19718
;Filament used: 24.007m
;Layer height: 0.2
;MINX:41.8
;MINY:54.3
;MINZ:0.3
;MAXX:158.2
;MAXY:145.7
;MAXZ:31.9
;Generated with Cura_SteamEngine 4.1.0
M140 S60
M105
M190 S60
M104 S190
M105
M109 S190
M82 ;absolute extrusion mode
G21 ;metric values
G90 ;absolute positioning
M82 ;set extruder to absolute mode
M107 ;start with the fan off
G28 X0 Y0 ;move X/Y to min endstops
G28 Z0 ;move Z to min endstops
G1 Z15.0 F9000 ;move the platform down 15mm
G92 E0 ;zero the extruded length
G1 F200 E3 ;extrude 3mm of feed stock
G92 E0 ;zero the extruded length again
G1 F9000
;Put printing message on LCD screen
M117 Printing...
G92 E0
G92 E0
G1 F1500 E-6.5
;LAYER_COUNT:159
;LAYER:0
M107
G0 F3600 X43.18 Y54.883 Z0.3
;TYPE:SKIRT
G1 F1500 E0
G1 F1800 X43.617 Y54.628 E0.02524
G1 X44.088 Y54.444 E0.05047
G1 X44.582 Y54.338 E0.07568
G1 X44.919 Y54.31 E0.09255
G1 X45.24 Y54.301 E0.10857
G1 X45.33 Y54.3 E0.11306
G1 X154.339 Y54.3 E5.55154
G1 X155.037 Y54.31 E5.58637
G1 X155.54 Y54.357 E5.61157
G1 X156.03 Y54.483 E5.63681
G1 X156.494 Y54.685 E5.66206
G1 X156.92 Y54.957 E5.68728
G1 X157.298 Y55.292 E5.71248
G1 X157.618 Y55.683 E5.73768
G1 X157.873 Y56.12 E5.76292
G1 X158.056 Y56.591 E5.78813
G1 X158.163 Y57.085 E5.81335
G1 X158.19 Y57.42 E5.83012
G1 X158.199 Y57.74 E5.84609
G1 X158.2 Y57.83 E5.85058
G1 X158.2 Y141.804 E10.04006
G1 X158.191 Y142.531 E10.07633
G1 X158.145 Y143.034 E10.10153
G1 X158.02 Y143.524 E10.12676
G1 X157.819 Y143.988 E10.15199
G1 X157.548 Y144.415 E10.17722
G1 X157.213 Y144.794 E10.20246
G1 X156.823 Y145.115 E10.22766
G1 X156.387 Y145.371 E10.25288
G1 X155.916 Y145.554 E10.27809
G1 X155.422 Y145.662 E10.30332
G1 X155.081 Y145.69 E10.32039
G1 X154.76 Y145.699 E10.33641
G1 X154.67 Y145.7 E10.3409
G1 X45.666 Y145.7 E15.77913
G1 X44.968 Y145.691 E15.81396
G1 X44.464 Y145.644 E15.83921
G1 X43.974 Y145.519 E15.86444
G1 X43.51 Y145.318 E15.88967
G1 X43.084 Y145.047 E15.91486
G1 X42.705 Y144.712 E15.94009
G1 X42.384 Y144.321 E15.96533
G1 X42.129 Y143.885 E15.99053
G1 X41.945 Y143.414 E16.01576
G1 X41.838 Y142.92 E16.04098
G1 X41.81 Y142.577 E16.05815
G1 X41.801 Y142.244 E16.07477
G1 X41.8 Y142.158 E16.07906
G1 X41.8 Y58.131 E20.27118
G1 X41.809 Y57.466 E20.30436
G1 X41.856 Y56.962 E20.32961
G1 X41.982 Y56.473 E20.35481
G1 X42.183 Y56.009 E20.38004
G1 X42.454 Y55.582 E20.40527
G1 X42.789 Y55.204 E20.43047
G1 X43.18 Y54.883 E20.4557
G1 F1500 E13.9557
;MESH:CA-SS02_dayhop.stl
G0 F3600 X45.614 Y56.835
G0 X45.614 Y58.114
G0 X46 Y58.5
;TYPE:WALL-INNER
G1 F1500 E20.4557
G1 F1800 X154 Y58.5 E25.84385
G1 X154 Y141.5 E29.98473
G1 X46 Y141.5 E35.37288
G1 X46 Y58.5 E39.51376
G0 F3600 X45.6 Y58.1
G1 F1800 X154.4 Y58.1 E44.94182
G1 X154.4 Y141.9 E49.12262
G1 X45.6 Y141.9 E54.55067
G1 X45.6 Y58.1 E58.73147
G0 F3600 X45.2 Y57.7
;TYPE:WALL-OUTER
G1 F1800 X154.8 Y57.7 E64.19943
G1 X154.8 Y142.3 E68.42015
G1 X45.2 Y142.3 E73.88811
G1 X45.2 Y57.7 E78.10882
G0 F3600 X45.4 Y57.7
G0 X45.67 Y58.17
G0 X46.39 Y58.89
;TYPE:SKIN
G1 F1800 X153.61 Y58.89 E83.45805
G1 X153.61 Y141.11 E87.56002
G1 X46.39 Y141.11 E92.90925
G1 X46.39 Y58.89 E97.01122
G0 F3600 X47.025 Y140.929
G1 F1800 X46.57 Y140.473 E97.04336
G0 F3600 X46.57 Y139.908
G1 F1800 X47.591 Y140.929 E97.1154
G0 F3600 X48.156 Y140.929
G1 F1800 X46.57 Y139.342 E97.22733
G0 F3600 X46.57 Y138.776
G1 F1800 X48.722 Y140.929 E97.3792
G0 F3600 X49.288 Y140.929
G1 F1800 X46.57 Y138.211 E97.57097
G0 F3600 X46.57 Y137.645
G1 F1800 X49.853 Y140.929 E97.80264
G0 F3600 X50.419 Y140.929
G1 F1800 X46.57 Y137.079 E98.07425
G0 F3600 X46.57 Y136.514
G1 F1800 X50.985 Y140.929 E98.38575
G0 F3600 X51.55 Y140.929
G1 F1800 X46.57 Y135.948 E98.73715
G0 F3600 X46.57 Y135.382
G1 F1800 X52.116 Y140.929 E99.12848
G0 F3600 X52.682 Y140.929
G1 F1800 X46.57 Y134.816 E99.55975
G0 F3600 X46.57 Y134.251
G1 F1800 X53.247 Y140.929 E100.03089
G0 F3600 X53.813 Y140.929
G1 F1800 X46.57 Y133.685 E100.54196
G0 F3600 X46.57 Y133.119
G1 F1800 X54.379 Y140.929 E101.09296
G0 F3600 X54.945 Y140.929
G1 F1800 X46.57 Y132.554 E101.68386
G0 F3600 X46.57 Y131.988
G1 F1800 X55.51 Y140.929 E102.31466
G0 F3600 X56.076 Y140.929
G1 F1800 X46.57 Y131.422 E102.9854
G0 F3600 X46.57 Y130.857
G1 F1800 X56.642 Y140.929 E103.69603
G0 F3600 X57.207 Y140.929
G1 F1800 X46.57 Y130.291 E104.44656
G0 F3600 X46.57 Y129.725
G1 F1800 X57.773 Y140.929 E105.23703
G0 F3600 X58.339 Y140.929
G1 F1800 X46.57 Y129.16 E106.0674
G0 F3600 X46.57 Y128.594
G1 F1800 X58.904 Y140.929 E106.93766
G0 F3600 X59.47 Y140.929
G1 F1800 X46.57 Y128.028 E107.84786
G0 F3600 X46.57 Y127.463
G1 F1800 X60.036 Y140.929 E108.79796
G0 F3600 X60.601 Y140.929
G1 F1800 X46.57 Y126.897 E109.78796
G0 F3600 X46.57 Y126.331
G1 F1800 X61.167 Y140.929 E110.81789
G0 F3600 X61.733 Y140.929
G1 F1800 X46.57 Y125.766 E111.88772
G0 F3600 X46.57 Y125.2
G1 F1800 X62.298 Y140.929 E112.99745
G0 F3600 X62.864 Y140.929
G1 F1800 X46.57 Y124.634 E114.14712
G0 F3600 X46.57 Y124.068
G1 F1800 X63.43 Y140.929 E115.33672
G0 F3600 X63.995 Y140.929
G1 F1800 X46.57 Y123.503 E116.56618
G0 F3600 X46.57 Y122.937
G1 F1800 X64.561 Y140.929 E117.83558
G0 F3600 X65.127 Y140.929
G1 F1800 X46.57 Y122.371 E119.14491
G0 F3600 X46.57 Y121.806
G1 F1800 X65.693 Y140.929 E120.49414
G0 F3600 X66.258 Y140.929
G1 F1800 X46.57 Y121.24 E121.88327
G0 F3600 X46.57 Y120.674
G1 F1800 X66.824 Y140.929 E123.31234
G0 F3600 X67.39 Y140.929
G1 F1800 X46.57 Y120.109 E124.7813
G0 F3600 X46.57 Y119.543
G1 F1800 X67.955 Y140.929 E126.29016
G0 F3600 X68.521 Y140.929
G1 F1800 X46.57 Y118.977 E127.83896
G0 F3600 X46.57 Y118.412
G1 F1800 X69.087 Y140.929 E129.42765
G0 F3600 X69.652 Y140.929
G1 F1800 X46.57 Y117.846 E131.05625
G0 F3600 X46.57 Y117.28
G1 F1800 X70.218 Y140.929 E132.72478
G0 F3600 X70.784 Y140.929
G1 F1800 X46.57 Y116.715 E134.43321
G0 F3600 X46.57 Y116.149
G1 F1800 X71.349 Y140.929 E136.18154
G0 F3600 X71.915 Y140.929
G1 F1800 X46.57 Y115.583 E137.9698
G0 F3600 X46.57 Y115.017
G1 F1800 X72.481 Y140.929 E139.79799
G0 F3600 X73.046 Y140.929
G1 F1800 X46.57 Y114.452 E141.66605
G0 F3600 X46.57 Y113.886
G1 F1800 X73.612 Y140.929 E143.57405
G0 F3600 X74.178 Y140.929
G1 F1800 X46.57 Y113.32 E145.52198
G0 F3600 X46.57 Y112.755
G1 F1800 X74.744 Y140.929 E147.5098
G0 F3600 X75.309 Y140.929
G1 F1800 X46.57 Y112.189 E149.53753
G0 F3600 X46.57 Y111.623
G1 F1800 X75.875 Y140.929 E151.60519
G0 F3600 X76.441 Y140.929
G1 F1800 X46.57 Y111.058 E153.71275
G0 F3600 X46.57 Y110.492
G1 F1800 X77.006 Y140.929 E155.86021
G0 F3600 X77.572 Y140.929
G1 F1800 X46.57 Y109.926 E158.04761
G0 F3600 X46.57 Y109.361
G1 F1800 X78.138 Y140.929 E160.2749
G0 F3600 X78.703 Y140.929
G1 F1800 X46.57 Y108.795 E162.54209
G0 F3600 X46.57 Y108.229
G1 F1800 X79.269 Y140.929 E164.84922
G0 F3600 X79.835 Y140.929
G1 F1800 X46.57 Y107.664 E167.19624
G0 F3600 X46.57 Y107.098
G1 F1800 X80.4 Y140.929 E169.58317
G0 F3600 X80.966 Y140.929
G1 F1800 X46.57 Y106.532 E172.01003
G0 F3600 X46.57 Y105.967
G1 F1800 X81.532 Y140.929 E174.47678
G0 F3600 X82.097 Y140.929
G1 F1800 X46.57 Y105.401 E176.98344
G0 F3600 X46.57 Y104.835
G1 F1800 X82.663 Y140.929 E179.53003
G0 F3600 X83.229 Y140.929
G1 F1800 X46.57 Y104.269 E182.11656
G0 F3600 X46.57 Y103.704
G1 F1800 X83.794 Y140.929 E184.74295
G0 F3600 X84.36 Y140.929
G1 F1800 X46.57 Y103.138 E187.40927
G0 F3600 X46.57 Y102.572
G1 F1800 X84.926 Y140.929 E190.11553
G0 F3600 X85.492 Y140.929
G1 F1800 X46.57 Y102.007 E192.86169
G0 F3600 X46.57 Y101.441
G1 F1800 X86.057 Y140.929 E195.64774
G0 F3600 X86.623 Y140.929
G1 F1800 X46.57 Y100.875 E198.47373
G0 F3600 X46.57 Y100.31
G1 F1800 X87.189 Y140.929 E201.33962
G0 F3600 X87.754 Y140.929
G1 F1800 X46.57 Y99.744 E204.24541
G0 F3600 X46.57 Y99.178
G1 F1800 X88.32 Y140.929 E207.19114
G0 F3600 X88.886 Y140.929
G1 F1800 X46.57 Y98.613 E210.17676
G0 F3600 X46.57 Y98.047
G1 F1800 X89.451 Y140.929 E213.20228
G0 F3600 X90.017 Y140.929
G1 F1800 X46.57 Y97.481 E216.26774
G0 F3600 X46.57 Y96.916
G1 F1800 X90.583 Y140.929 E219.37309
G0 F3600 X91.148 Y140.929
G1 F1800 X46.57 Y96.35 E222.51835
G0 F3600 X46.57 Y95.784
G1 F1800 X91.714 Y140.929 E225.70353
G0 F3600 X92.28 Y140.929
G1 F1800 X46.57 Y95.218 E228.92866
G0 F3600 X46.57 Y94.653
G1 F1800 X92.845 Y140.929 E232.19364
G0 F3600 X93.411 Y140.929
G1 F1800 X46.57 Y94.087 E235.49856
G0 F3600 X46.57 Y93.521
G1 F1800 X93.977 Y140.929 E238.84342
G0 F3600 X94.543 Y140.929
G1 F1800 X46.57 Y92.956 E242.22817
G0 F3600 X46.57 Y92.39
G1 F1800 X95.108 Y140.929 E245.65283
G0 F3600 X95.674 Y140.929
G1 F1800 X46.57 Y91.824 E249.11741
G0 F3600 X46.57 Y91.259
G1 F1800 X96.24 Y140.929 E252.6219
G0 F3600 X96.805 Y140.929
G1 F1800 X46.57 Y90.693 E256.16629
G0 F3600 X46.57 Y90.127
G1 F1800 X97.371 Y140.929 E259.75061
G0 F3600 X97.937 Y140.929
G1 F1800 X46.57 Y89.562 E263.37483
G0 F3600 X46.57 Y88.996
G1 F1800 X98.502 Y140.929 E267.03894
G0 F3600 X99.068 Y140.929
G1 F1800 X46.57 Y88.43 E270.743
G0 F3600 X46.57 Y87.865
G1 F1800 X99.634 Y140.929 E274.48695
G0 F3600 X100.199 Y140.929
G1 F1800 X46.57 Y87.299 E278.2708
G0 F3600 X46.57 Y86.733
G1 F1800 X100.765 Y140.929 E282.09459
G0 F3600 X101.331 Y140.929
G1 F1800 X46.57 Y86.168 E285.95827
G0 F3600 X46.57 Y85.602
G1 F1800 X101.896 Y140.929 E289.86185
G0 F3600 X102.462 Y140.929
G1 F1800 X46.57 Y85.036 E293.80537
G0 F3600 X46.57 Y84.47
G1 F1800 X103.028 Y140.929 E297.78882
G0 F3600 X103.593 Y140.929
G1 F1800 X46.57 Y83.905 E301.81214
G0 F3600 X46.57 Y83.339
G1 F1800 X104.159 Y140.929 E305.87539
G0 F3600 X104.725 Y140.929
G1 F1800 X46.57 Y82.773 E309.97857
G0 F3600 X46.57 Y82.208
G1 F1800 X105.291 Y140.929 E314.12166
G0 F3600 X105.856 Y140.929
G1 F1800 X46.57 Y81.642 E318.30464
G0 F3600 X46.57 Y81.076
G1 F1800 X106.422 Y140.929 E322.52756
G0 F3600 X106.988 Y140.929
G1 F1800 X46.57 Y80.511 E326.79037
G0 F3600 X46.57 Y79.945
G1 F1800 X107.553 Y140.929 E331.09309
G0 F3600 X108.119 Y140.929
G1 F1800 X46.57 Y79.379 E335.43574
G0 F3600 X46.57 Y78.814
G1 F1800 X108.685 Y140.929 E339.81829
G0 F3600 X109.25 Y140.929
G1 F1800 X46.57 Y78.248 E344.24073
G0 F3600 X46.57 Y77.682
G1 F1800 X109.816 Y140.929 E348.70312
G0 F3600 X110.382 Y140.929
G1 F1800 X46.57 Y77.117 E353.2054
G0 F3600 X46.57 Y76.551
G1 F1800 X110.947 Y140.929 E357.74758
G0 F3600 X111.513 Y140.929
G1 F1800 X46.57 Y75.985 E362.32969
G0 F3600 X46.57 Y75.42
G1 F1800 X112.079 Y140.929 E366.95171
G0 F3600 X112.644 Y140.929
G1 F1800 X46.57 Y74.854 E371.61362
G0 F3600 X46.57 Y74.288
G1 F1800 X113.21 Y140.929 E376.31547
G0 F3600 X113.776 Y140.929
G1 F1800 X46.57 Y73.722 E381.05725
G0 F3600 X46.57 Y73.157
G1 F1800 X114.341 Y140.929 E385.83889
G0 F3600 X114.907 Y140.929
G1 F1800 X46.57 Y72.591 E390.66047
G0 F3600 X46.57 Y72.025
G1 F1800 X115.473 Y140.929 E395.52199
G0 F3600 X116.039 Y140.929
G1 F1800 X46.57 Y71.46 E400.4234
G0 F3600 X46.57 Y70.894
G1 F1800 X116.604 Y140.929 E405.36471
G0 F3600 X117.17 Y140.929
G1 F1800 X46.57 Y70.328 E410.34596
G0 F3600 X46.57 Y69.763
G1 F1800 X117.736 Y140.929 E415.36711
G0 F3600 X118.301 Y140.929
G1 F1800 X46.57 Y69.197 E420.42815
G0 F3600 X46.57 Y68.631
G1 F1800 X118.867 Y140.929 E425.52913
G0 F3600 X119.433 Y140.929
G1 F1800 X46.57 Y68.066 E430.67001
G0 F3600 X46.57 Y67.5
G1 F1800 X119.998 Y140.929 E435.85078
G0 F3600 X120.564 Y140.929
G1 F1800 X46.57 Y66.934 E441.0715
G0 F3600 X46.57 Y66.369
G1 F1800 X121.13 Y140.929 E446.33211
G0 F3600 X121.695 Y140.929
G1 F1800 X46.57 Y65.803 E451.63262
G0 F3600 X46.57 Y65.237
G1 F1800 X122.261 Y140.929 E456.97306
G0 F3600 X122.827 Y140.929
G1 F1800 X46.57 Y64.671 E462.35344
G0 F3600 X46.57 Y64.106
G1 F1800 X123.392 Y140.929 E467.77368
G0 F3600 X123.958 Y140.929
G1 F1800 X46.57 Y63.54 E473.23386
G0 F3600 X46.57 Y62.974
G1 F1800 X124.524 Y140.929 E478.73397
G0 F3600 X125.09 Y140.929
G1 F1800 X46.57 Y62.409 E484.27398
G0 F3600 X46.57 Y61.843
G1 F1800 X125.655 Y140.929 E489.85389
G0 F3600 X126.221 Y140.929
G1 F1800 X46.57 Y61.277 E495.47373
G0 F3600 X46.57 Y60.712
G1 F1800 X126.787 Y140.929 E501.13348
G0 F3600 X127.352 Y140.929
G1 F1800 X46.57 Y60.146 E506.83312
G0 F3600 X46.57 Y59.58
G1 F1800 X127.918 Y140.929 E512.57269
G0 F3600 X128.484 Y140.929
G1 F1800 X46.624 Y59.069 E518.34836
G0 F3600 X47.19 Y59.069
G1 F1800 X129.049 Y140.929 E524.12399
G0 F3600 X129.615 Y140.929
G1 F1800 X47.755 Y59.069 E529.89965
G0 F3600 X48.321 Y59.069
G1 F1800 X130.181 Y140.929 E535.67532
G0 F3600 X130.746 Y140.929
G1 F1800 X48.887 Y59.069 E541.45095
G0 F3600 X49.452 Y59.069
G1 F1800 X131.312 Y140.929 E547.22661
G0 F3600 X131.878 Y140.929
G1 F1800 X50.018 Y59.069 E553.00228
G0 F3600 X50.584 Y59.069
G1 F1800 X132.443 Y140.929 E558.77791
G0 F3600 X133.009 Y140.929
G1 F1800 X51.149 Y59.069 E564.55357
G0 F3600 X51.715 Y59.069
G1 F1800 X133.575 Y140.929 E570.32924
G0 F3600 X134.14 Y140.929
G1 F1800 X52.281 Y59.069 E576.10487
G0 F3600 X52.847 Y59.069
G1 F1800 X134.706 Y140.929 E581.8805
G0 F3600 X135.272 Y140.929
G1 F1800 X53.412 Y59.069 E587.65616
G0 F3600 X53.978 Y59.069
G1 F1800 X135.838 Y140.929 E593.43183
G0 F3600 X136.403 Y140.929
G1 F1800 X54.544 Y59.069 E599.20746
G0 F3600 X55.109 Y59.069
G1 F1800 X136.969 Y140.929 E604.98312
G0 F3600 X137.535 Y140.929
G1 F1800 X55.675 Y59.069 E610.75879
G0 F3600 X56.241 Y59.069
G1 F1800 X138.1 Y140.929 E616.53442
G0 F3600 X138.666 Y140.929
G1 F1800 X56.806 Y59.069 E622.31008
G0 F3600 X57.372 Y59.069
G1 F1800 X139.232 Y140.929 E628.08575
G0 F3600 X139.797 Y140.929
G1 F1800 X57.938 Y59.069 E633.86138
G0 F3600 X58.503 Y59.069
G1 F1800 X140.363 Y140.929 E639.63704
G0 F3600 X140.929 Y140.929
G1 F1800 X59.069 Y59.069 E645.41271
G0 F3600 X59.635 Y59.069
G1 F1800 X141.494 Y140.929 E651.18834
G0 F3600 X142.06 Y140.929
G1 F1800 X60.2 Y59.069 E656.964
G0 F3600 X60.766 Y59.069
G1 F1800 X142.626 Y140.929 E662.73967
G0 F3600 X143.191 Y140.929
G1 F1800 X61.332 Y59.069 E668.5153
G0 F3600 X61.898 Y59.069
G1 F1800 X143.757 Y140.929 E674.29093
G0 F3600 X144.323 Y140.929
G1 F1800 X62.463 Y59.069 E680.06659
G0 F3600 X63.029 Y59.069
G1 F1800 X144.889 Y140.929 E685.84226
G0 F3600 X145.454 Y140.929
G1 F1800 X63.595 Y59.069 E691.61789
G0 F3600 X64.16 Y59.069
G1 F1800 X146.02 Y140.929 E697.39355
G0 F3600 X146.586 Y140.929
G1 F1800 X64.726 Y59.069 E703.16922
G0 F3600 X65.292 Y59.069
G1 F1800 X147.151 Y140.929 E708.94485
G0 F3600 X147.717 Y140.929
G1 F1800 X65.857 Y59.069 E714.72051
G0 F3600 X66.423 Y59.069
G1 F1800 X148.283 Y140.929 E720.49618
G0 F3600 X148.848 Y140.929
G1 F1800 X66.989 Y59.069 E726.27181
G0 F3600 X67.554 Y59.069
G1 F1800 X149.414 Y140.929 E732.04747
G0 F3600 X149.98 Y140.929
G1 F1800 X68.12 Y59.069 E737.82314
G0 F3600 X68.686 Y59.069
G1 F1800 X150.545 Y140.929 E743.59877
G0 F3600 X151.111 Y140.929
G1 F1800 X69.251 Y59.069 E749.37443
G0 F3600 X69.817 Y59.069
G1 F1800 X151.677 Y140.929 E755.1501
G0 F3600 X152.242 Y140.929
G1 F1800 X70.383 Y59.069 E760.92573
G0 F3600 X70.948 Y59.069
G1 F1800 X152.808 Y140.929 E766.70139
G0 F3600 X153.374 Y140.929
G1 F1800 X71.514 Y59.069 E772.47706
G0 F3600 X72.08 Y59.069
G1 F1800 X153.429 Y140.418 E778.21667
G0 F3600 X153.429 Y139.852
G1 F1800 X72.646 Y59.069 E783.91635
G0 F3600 X73.211 Y59.069
G1 F1800 X153.429 Y139.287 E789.57616
G0 F3600 X153.429 Y138.721
G1 F1800 X73.777 Y59.069 E795.19604
G0 F3600 X74.343 Y59.069
G1 F1800 X153.429 Y138.155 E800.77598
G0 F3600 X153.429 Y137.59
G1 F1800 X74.908 Y59.069 E806.31606
G0 F3600 X75.474 Y59.069
G1 F1800 X153.429 Y137.024 E811.81621
G0 F3600 X153.429 Y136.458
G1 F1800 X76.04 Y59.069 E817.27642
G0 F3600 X76.605 Y59.069
G1 F1800 X153.429 Y135.893 E822.69677
G0 F3600 X153.429 Y135.327
G1 F1800 X77.171 Y59.069 E828.07718
G0 F3600 X77.737 Y59.069
G1 F1800 X153.429 Y134.761 E833.41766
G0 F3600 X153.429 Y134.196
G1 F1800 X78.302 Y59.069 E838.71828
G0 F3600 X78.868 Y59.069
G1 F1800 X153.429 Y133.63 E843.97896
G0 F3600 X153.429 Y133.064
G1 F1800 X79.434 Y59.069 E849.19971
G0 F3600 X79.999 Y59.069
G1 F1800 X153.429 Y132.499 E854.38059
G0 F3600 X153.429 Y131.933
G1 F1800 X80.565 Y59.069 E859.52154
G0 F3600 X81.131 Y59.069
G1 F1800 X153.429 Y131.367 E864.62255
G0 F3600 X153.429 Y130.802
G1 F1800 X81.696 Y59.069 E869.6837
G0 F3600 X82.262 Y59.069
G1 F1800 X153.429 Y130.236 E874.70492
G0 F3600 X153.429 Y129.67
